X:1
T:Title
%%score { ( 1 4 ) | ( 2 3 ) }
L:1/8
Q:1/4=112
M:3/4
K:Ab
V:1 treble nm="Grand Piano"
V:4 treble 
V:2 bass 
V:3 bass 
V:1
 [CE]4 [CE]2 | [EA]4 [EA]2 | [FB]4 [B,EG]2 | [CEA]6 | [EAc]4 [EAc]2 | [EBd]4 [EAc]2 | [EGB]6- | %7
w: J.~H.~Kurzenknabe *|||||||
 [EGB]4 z2 | [Ge]4 [EBe]2 | [EAc]4 [A,EA]2 | [FA]4 [A,DF]2 | [A,CE]6 | [CEA]4 [EAc]2 | %13
w: ||||||
 [DFB]4 [B,EG]2 | [CEA]6- | [CEA]4 z2 |] %16
w: |||
V:2
 [A,,A,]4 [A,,A,]2 | [C,A,]4 [C,A,]2 | F,2 D2 E,2 | A,,6 | A,4 A,2 | G,4 A,2 | E,6- | E,4 z2 | %8
 [E,B,]4 G,2 | A,4 C,2 | z2 D2 D,2 | A,,6 | A,,4 A,,2 | D,4 E,2 | A,,6- | A,,4 z2 |] %16
V:3
 x6 | x6 | D,4 z2 | x6 | x6 | x6 | x6 | x6 | x6 | x6 | D,4 z2 | x6 | x6 | x6 | x6 | x6 |] %16
V:4
 x6 | x6 | x6 | x6 | x6 | x6 | x6 | x6 | x6 | x6 | A,2 z2 z2 | x6 | x6 | x6 | x6 | x6 |] %16

